X:1
T:Off In The Morning
C:by Martin Mulhaire
M:4/4
L:1/8
R:reel
F:Catskills+Tunes.txt
K:Gmaj
D:Willie Kelly (Tue AM)
~G3 B d ~B3 | gBfB  egdB | cBAc BAGB | Add^c dedB |
~G3 B d ~B3 | gBfB  ((3 efg) dB | cBAc BAGB |1 ADFA GBdB :|2 ADFA GABd ||
~g3 f gdBd | g2 fg  ((3 efg) dB | cBAc BAGB | Add^c de ((3 fga) |
~g3 f gdBd | g2 fg  ((3 efg) dB | cBAc BAGB | ADFA GABd |
~g3 f gdBd | g2 fg  ((3 efg) dB | cBAc BAGB | Add^c dedB  |
~G3 B d ~B3 | gBfB  ((3 efg) dB | cBAc BAGB | ADFA GBdB ||
